data/sheikah/z.svg

<!-- Generated by IcoMoon.io -->
<svg version="1.1" xmlns="http://www.w3.org/2000/svg" width="1024" height="1024" viewBox="0 0 1024 1024">
<title></title>
<g id="icomoon-ignore">
</g>
<path d="M153.5 273l119.5-119.5h478l119.5 119.5v279l-119.5 119.5h-79.5l-119.5-119.5v-199.5h119.5v199.5h79.5v-279h-597.5zM273 751v-279h79.5v199.5h119.5v-199.5l-119.5-119.5h-79.5l-119.5 119.5v279l119.5 119.5h478l119.5-119.5h-597.5z"></path>
</svg>

<svg xmlns="http://www.w3.org/2000/svg" width="1024" height="1024" viewBox="0 0 1024 1024">
  <title/>
  <path d="M153.5 273 273 153.5h478L870.5 273v279L751 671.5h-79.5L552 552V352.5h119.5V552H751V273zM273 751V472h79.5v199.5H472V472L352.5 352.5H273L153.5 472v279L273 870.5h478L870.5 751z"/>
</svg>
